Adwaita++/apps/scalable/taxi.svg

<svg enable-background="new" height="128" viewBox="0 0 128 128" width="128" xmlns="http://www.w3.org/2000/svg">
  <rect fill="#f6d32d" height="88.000008" rx="8" ry="8.8" width="112" x="8.000001" y="28.000006"/>
  <path d="m8 106v2c0 4.432 3.568 8 8 8h96c4.432 0 8-3.568 8-8v-2c0 4.432-3.568 8-8 8h-96c-4.432 0-8-3.568-8-8z" fill="#e5a50a"/>
  <path d="m24 56v16h16v-16zm16 16v16h15.999999v-16zm15.999999 0h16v-16h-16zm16 0v16h16.000001v-16zm16.000001 0h16v-16h-16z" fill="#241f31" opacity=".8" stroke-width=".551724"/>
</svg>

<?xml version="1.0" encoding="UTF-8" standalone="no"?>
<svg xmlns:dc="http://purl.org/dc/elements/1.1/" xmlns:cc="http://creativecommons.org/ns#" xmlns:rdf="http://www.w3.org/1999/02/22-rdf-syntax-ns#" xmlns:svg="http://www.w3.org/2000/svg" xmlns="http://www.w3.org/2000/svg" xmlns:xlink="http://www.w3.org/1999/xlink" xmlns:sodipodi="http://sodipodi.sourceforge.net/DTD/sodipodi-0.dtd" xmlns:inkscape="http://www.inkscape.org/namespaces/inkscape" inkscape:version="1.0alpha (d63f16a48b, 2019-05-07)" sodipodi:docname="com.github.alecaddd.taxi.svg" width="128" height="128" id="svg11300" version="1.0" style="display:inline;enable-background:new" viewBox="0 0 128 128">
  <sodipodi:namedview inkscape:document-rotation="0" inkscape:current-layer="svg11300" inkscape:window-maximized="1" inkscape:window-y="34" inkscape:window-x="0" inkscape:cy="51.287354" inkscape:cx="64" inkscape:zoom="3.1464731" showgrid="false" id="namedview25" inkscape:window-height="836" inkscape:window-width="1600" inkscape:pageshadow="2" inkscape:pageopacity="0" guidetolerance="10" gridtolerance="10" objecttolerance="10" borderopacity="1" bordercolor="#666666" pagecolor="#ffffff" />
  <title id="title4162">Adwaita Icon Template</title>
  <defs id="defs3">
    <linearGradient id="linearGradient1007">
      <stop style="stop-color:#2dc0af;stop-opacity:1;" offset="0" id="stop1003" />
      <stop style="stop-color:#61a1d2;stop-opacity:1" offset="1" id="stop1005" />
    </linearGradient>
    <linearGradient id="linearGradient6809-3">
      <stop style="stop-color:#f6d123;stop-opacity:1" offset="0" id="stop6805" />
      <stop style="stop-color:#2dc0af;stop-opacity:0.13779527" offset="1" id="stop6807" />
    </linearGradient>
    <linearGradient id="linearGradient6826">
      <stop style="stop-color:#50dbb5;stop-opacity:1;" offset="0" id="stop6822" />
      <stop style="stop-color:#4a86cf;stop-opacity:1" offset="1" id="stop6824" />
    </linearGradient>
    <radialGradient xlink:href="#linearGradient6826" id="radialGradient439" gradientUnits="userSpaceOnUse" gradientTransform="matrix(0.25,0,0,0.1967778,-162.99495,200.7212)" cx="184" cy="-179.60248" fx="184" fy="-179.60248" r="225" />
    <radialGradient xlink:href="#linearGradient6809-3" id="radialGradient441" gradientUnits="userSpaceOnUse" gradientTransform="matrix(0.45333333,0,0,0.35682373,-215.04828,157.89251)" cx="256" cy="267.60248" fx="256" fy="267.60248" r="225" />
    <linearGradient xlink:href="#linearGradient1007" id="linearGradient443" gradientUnits="userSpaceOnUse" gradientTransform="matrix(0.25,0,0,0.25,-162.99495,202.37942)" x1="230" y1="204" x2="230" y2="172" />
  </defs>
  <metadata id="metadata4">
    <rdf:RDF>
      <cc:Work rdf:about="">
        <dc:format>image/svg+xml</dc:format>
        <dc:type rdf:resource="http://purl.org/dc/dcmitype/StillImage" />
        <dc:creator>
          <cc:Agent>
            <dc:title>GNOME Design Team</dc:title>
          </cc:Agent>
        </dc:creator>
        <dc:source />
        <cc:license rdf:resource="http://creativecommons.org/licenses/by-sa/4.0/" />
        <dc:title>Adwaita Icon Template</dc:title>
        <dc:subject>
          <rdf:Bag />
        </dc:subject>
        <dc:date />
        <dc:rights>
          <cc:Agent>
            <dc:title />
          </cc:Agent>
        </dc:rights>
        <dc:publisher>
          <cc:Agent>
            <dc:title />
          </cc:Agent>
        </dc:publisher>
        <dc:identifier />
        <dc:relation />
        <dc:language />
        <dc:coverage />
        <dc:description />
        <dc:contributor>
          <cc:Agent>
            <dc:title />
          </cc:Agent>
        </dc:contributor>
      </cc:Work>
      <cc:License rdf:about="http://creativecommons.org/licenses/by-sa/4.0/">
        <cc:permits rdf:resource="http://creativecommons.org/ns#Reproduction" />
        <cc:permits rdf:resource="http://creativecommons.org/ns#Distribution" />
        <cc:requires rdf:resource="http://creativecommons.org/ns#Notice" />
        <cc:requires rdf:resource="http://creativecommons.org/ns#Attribution" />
        <cc:permits rdf:resource="http://creativecommons.org/ns#DerivativeWorks" />
        <cc:requires rdf:resource="http://creativecommons.org/ns#ShareAlike" />
      </cc:License>
    </rdf:RDF>
  </metadata>
  <rect style="display:inline;opacity:1;vector-effect:none;fill:#f6d32d;fill-opacity:1;stroke:none;stroke-width:0.524404;stroke-linecap:butt;stroke-linejoin:bevel;stroke-miterlimit:4;stroke-dasharray:0.524404, 1.04881000000000002;stroke-dashoffset:0;stroke-opacity:0.948819;marker:none;marker-start:none;marker-mid:none;marker-end:none;paint-order:normal;enable-background:new;stop-opacity:1" id="rect429" width="112" height="88.000008" x="8.000001" y="28.000006" rx="8" ry="8.8000002" />
  <path id="path435" d="m 8,106 v 2 c 0,4.432 3.568,8 8,8 h 96 c 4.432,0 8,-3.568 8,-8 v -2 c 0,4.432 -3.568,8 -8,8 H 16 c -4.432,0 -8,-3.568 -8,-8 z" style="display:inline;opacity:1;vector-effect:none;fill:#e5a50a;fill-opacity:1;stroke:none;stroke-width:0.5;stroke-linecap:butt;stroke-linejoin:bevel;stroke-miterlimit:4;stroke-dasharray:0.5, 1;stroke-dashoffset:0;stroke-opacity:0.948819;marker:none;marker-start:none;marker-mid:none;marker-end:none;paint-order:normal;enable-background:new;stop-opacity:1" inkscape:connector-curvature="0" />
  <path inkscape:connector-curvature="0" id="path1516" d="M 24,56 V 72 H 40 V 56 Z M 40,72 V 88 H 55.999999 V 72 Z m 15.999999,0 h 16 V 56 h -16 z m 16,0 V 88 H 88 V 72 Z M 88,72 h 16 V 56 H 88 Z" style="opacity:0.8;isolation:isolate;fill:#241f31;fill-opacity:1;stroke-width:0.551724;stop-opacity:1" />
</svg>
